Numix-GalliumOS/16/categories/system-help.svg

<?xml version="1.0" encoding="UTF-8" standalone="no"?>
<svg
   xmlns:dc="http://purl.org/dc/elements/1.1/"
   xmlns:cc="http://creativecommons.org/ns#"
   xmlns:rdf="http://www.w3.org/1999/02/22-rdf-syntax-ns#"
   xmlns:svg="http://www.w3.org/2000/svg"
   xmlns="http://www.w3.org/2000/svg"
   xmlns:sodipodi="http://sodipodi.sourceforge.net/DTD/sodipodi-0.dtd"
   xmlns:inkscape="http://www.inkscape.org/namespaces/inkscape"
   width="16"
   height="16"
   viewBox="0 0 16 16"
   id="svg2"
   version="1.1"
   inkscape:version="0.91 r"
   sodipodi:docname="system-help.svg">
  <metadata
     id="metadata10">
    <rdf:RDF>
      <cc:Work
         rdf:about="">
        <dc:format>image/svg+xml</dc:format>
        <dc:type
           rdf:resource="http://purl.org/dc/dcmitype/StillImage" />
        <dc:title />
      </cc:Work>
    </rdf:RDF>
  </metadata>
  <defs
     id="defs8" />
  <sodipodi:namedview
     pagecolor="#ffffff"
     bordercolor="#666666"
     borderopacity="1"
     objecttolerance="10"
     gridtolerance="10"
     guidetolerance="10"
     inkscape:pageopacity="0"
     inkscape:pageshadow="2"
     inkscape:window-width="1680"
     inkscape:window-height="1026"
     id="namedview6"
     showgrid="true"
     inkscape:zoom="20.85965"
     inkscape:cx="-2.4798199"
     inkscape:cy="7.5377406"
     inkscape:window-x="0"
     inkscape:window-y="24"
     inkscape:window-maximized="1"
     inkscape:current-layer="svg2">
    <inkscape:grid
       type="xygrid"
       id="grid4138" />
  </sodipodi:namedview>
  <path
     style="fill:#9cc7cf"
     d="M 8.422835,10.380862 C 8.3925171,9.2932057 8.6388509,8.2396575 9.6772392,7.4892895 10.768684,6.6403877 11.822233,5.5830501 11.71233,4.3362258 11.68959,3.131089 10.276019,2.187443 8.7525426,2.0510124 7.0395802,1.816049 4.9665922,2.395879 4.3905517,3.726078 4.098742,4.3703333 4.3716032,5.5299942 5.3493566,5.5299942 c 0.5684605,0 0.8337428,-0.3676046 0.8754302,-0.7011017 C 6.2588942,4.5749797 6.1527815,4.3475953 6.0921457,4.1391594 6.0201404,3.9004055 6.3195301,3.4380577 6.6492377,3.2485702 6.9258885,3.0931911 7.2101182,3.0363448 7.2518056,3.0287658 8.237138,2.7938014 9.2186809,3.3129965 9.6279728,3.9458824 10.041055,4.5749797 9.5862854,5.5337837 8.9420301,6.4660602 8.2901948,7.3983357 7.5966722,8.4556734 7.5966722,9.581226 c 0,0.428241 -0.037897,0.572252 -0.011369,0.74279 0.022739,0.14022 0.4850867,0.125061 0.8375323,0.05684 z m -0.4471888,1.466629 c -0.943645,-0.04927 -1.5954803,1.008071 -1.0308093,1.686435 0.5078247,0.742789 1.9251879,0.560881 2.1677313,-0.284231 0.2501223,-0.655625 -0.3562361,-1.413573 -1.136922,-1.402204 z"
     id="path4"
     inkscape:connector-curvature="0" />
</svg>

<svg xmlns="http://www.w3.org/2000/svg" viewBox="0 0 16 16">
 <path d="m 8.423 10.381 c -0.03 -1.088 0.216 -2.141 1.254 -2.892 1.091 -0.849 2.145 -1.906 2.035 -3.153 -0.023 -1.205 -1.436 -2.149 -2.96 -2.285 -1.713 -0.235 -3.786 0.345 -4.362 1.675 -0.292 0.644 -0.019 1.804 0.959 1.804 c 0.568 0 0.834 -0.368 0.875 -0.701 c 0.034 -0.254 -0.072 -0.481 -0.133 -0.69 -0.072 -0.239 0.227 -0.701 0.557 -0.891 0.277 -0.155 0.561 -0.212 0.603 -0.22 0.985 -0.235 1.967 0.284 2.376 0.917 0.413 0.629 -0.042 1.588 -0.686 2.52 -0.652 0.932 -1.345 1.99 -1.345 3.115 c 0 0.428 -0.038 0.572 -0.011 0.743 0.023 0.14 0.485 0.125 0.838 0.057 z m -0.447 1.467 c -0.944 -0.049 -1.595 1.01 -1.031 1.686 0.508 0.743 1.925 0.561 2.168 -0.284 0.25 -0.656 -0.356 -1.414 -1.137 -1.402 z" style="fill:#9cc7cf"/>
</svg>
